!!!!SEGMENT: d-b--slg-bohn-ms-mus-111--009_jarzebski-adam--canzoni-e-concerti-9-in-te-domine-speravi.krn
!!!cenid: 16xx:1782
!!!COM: Jarzębski, Adam
!!!COM-rismID: pe30017782
!!!CDT: 1590-1648
!!!CNT: Polish
!!!GTL: Canzoni e Concerti
!!!OTL: 9. In te Domine speravi
!!!OMV: 009
!!!PDT: 1627
!!!AGN:
!!!YEC: Copyright 2022 Narodowy Instytut Fryderyka Chopina (https://polishscores.org)
!!!YEM: License CC-BY-4.0 (https://creativecommons.org/licenses/by/4.0)
!!!SMS-siglum: D-B
!!!SMS-shelfmark: Slg Bohn Ms.mus. 111
!!!SMS-shelfwork: 001-009 G
!!!SMS-variant:
!!!SMS-altvar:
!!!NIFC-rismSourceID: 1001062014
!!!NIFC-rismChildID: 1001062014
!!!NIFC-islandoraID: none
!!!URL-pdf-islandora:
!!!URL-scan: https://digital.staatsbibliothek-berlin.de/werkansicht/?PPN=PPN1049147219 @EN{Scan on Staatsbibliothek zu Berlin Website} @PL{Skany w portalu Staatsbibliothek zu Berlin}
!!!IIIF:
!!!ONB-nifc: UWAGA: Prima vox: s. 16-17, Seconda vox: s. 76-77, Basso continuo: s. 170. Uwaga: proszę wpisywać partie tylko występujące w danym koncercie i nazywać partie wg określeń podawanych przy danym utworze. Kody instr. dla humdrumowców podane zostaną na forum.
!!!AIN: 1 soprn 1 vox
!!!key:
**kern	**fba	**kern	**dynam	**kern	**dynam
*part3	*part3	*part2	*part2	*part1	*part1
*staff3	*staff3	*staff2	*	*staff1	*
*I"Basso Continúo	*	*I"Voce	*	*I"Canto	*
*I'bc	*	*I'V	*	*I'S	*
*I	*	*Ivox	*	*Isoprn	*
*ICklav	*	*ICvox	*	*ICvox	*
*IGcont	*	*	*	*	*
*clefC4	*	*clefF4	*	*clefG2	*
*k[b-]	*	*k[b-]	*	*k[b-]	*
*c:	*	*c:	*	*c:	*
*M2/1	*	*M2/1	*	*M2/1	*
*met(C|)	*	*met(C|)	*	*met(C|)	*
!!LO:TX:t=P:problem=all\right
=1-	=1-	=1-	=1-	=1-	=1-
1g	.	00r	.	1.g	.
1.G	.	.	.	.	.
.	.	.	.	2g/	.
=2-	=2-	=2-	=2-	=2-	=2-
.	.	.	.	1b-	.
2G/	.	.	.	.	.
!LO:TX:t=P:problem=kreska pseudotaktowa	!	!	!	!	!
1.d	.	.	.	4.b-/	.
.	.	.	.	8cc\	.
.	.	.	.	(8.a/L	.
.	.	.	.	16b-/Jk)	.
.	.	.	.	4g/,<	.
=3-	=3-	=3-	=3-	=3-	=3-
.	.	00r	.	4.a/	.
.	.	.	.	8g/	.
2d\	.	.	.	8.f/L	.
.	.	.	.	16g/Jk	.
.	.	.	.	8.a/L	.
.	.	.	.	16b-/Jk,<	.
2c\	.	.	.	4g/	.
.	.	.	.	8.f/L	.
.	.	.	.	16g/K	.
!LO:TX:t=P:problem=kreska pseudotaktowa	!	!	!	!	!
2A/	.	.	.	8.a/	.
.	.	.	.	16b-/Jk	.
.	.	.	.	8.cc\L	.
.	.	.	.	16dd\Jk,<	.
=4-	=4-	=4-	=4-	=4-	=4-
1G	.	.	.	4.b-/	.
.	.	.	.	8a/	.
.	.	.	.	8b-/L	.
.	.	.	.	8a/	.
.	.	.	.	8b-/	.
*	*	*	*	*custos:a	*
.	.	.	.	8cc/J,<	.
!LO:TX:t=P:problem=kreska pseudotaktowa	!	!	!	!	!
!	!	!	!	!LO:LB:g=original	!
1d	.	.	.	4a/	.
.	.	.	.	16a/LL	.
.	.	.	.	16d/	.
.	.	.	.	16e/	.
.	.	.	.	16f/	.
.	.	.	.	16g/	.
.	.	.	.	16a/	.
.	.	.	.	16b-/	.
.	.	.	.	16cc/JJ	.
.	.	.	.	2dd\	.
=5-	=5-	=5-	=5-	=5-	=5-
1A	.	00r	.	.	.
.	.	.	.	16ee-X\LL	.
.	.	.	.	16dd\	.
.	.	.	.	16cc\	.
.	.	.	.	16b-\JJ	.
.	.	.	.	4.cc\	.
.	.	.	.	16dd\LL	.
!	!	!	!	!LO:TX:t=P:problem=kreska pseudotaktowa	!
.	.	.	.	16cc\JJ	.
2.d\	.	.	.	4b-/	.
.	.	.	.	16cc\LL	.
.	.	.	.	16b-\	.
.	.	.	.	16cc\	.
.	.	.	.	16dd\JJ	.
.	.	.	.	4.a/	.
!LO:TX:t=P:problem=kreska pseudotaktowa	!	!	!	!	!
4c\	.	.	.	.	.
.	.	.	.	16b-/LL	.
.	.	.	.	16cc/JJ,<	.
=6-	=6-	=6-	=6-	=6-	=6-
2B-\	.	.	.	4g/	.
.	.	.	.	16a/LL	.
.	.	.	.	16b-/	.
.	.	.	.	16cc/	.
.	.	.	.	16a/JJ	.
2G/	.	.	.	8b-/L	.
.	.	.	.	8g/	.
.	.	.	.	8.cc/	.
.	.	.	.	16b-/Jk,<	.
4d\	.	.	.	[<4a/	.
4c\	.	.	.	16a/LL]	.
.	.	.	.	16d/	.
.	.	.	.	16e/	.
*	*	*	*	*custos:g	*
.	.	.	.	16f/JJ	.
!	!	!	!	!LO:LB:g=original	!
4B-\	.	.	.	16g/LL	.
.	.	.	.	16a/	.
.	.	.	.	16b-/	.
.	.	.	.	16cc/JJ	.
!LO:TX:t=P:problem=kreska pseudotaktowa	!	!	!	!LO:TX:t=P:problem=kreska pseudotaktowa	!
4A/	.	.	.	[>4dd\	.
=7-	=7-	=7-	=7-	=7-	=7-
1G	.	0r	.	16dd\LL]	.
.	.	.	.	16ee-X\	.
.	.	.	.	16dd\	.
.	.	.	.	16cc\JJ	.
.	.	.	.	16b-/LL	.
.	.	.	.	16a/	.
.	.	.	.	16b-/	.
.	.	.	.	16cc/JJ	.
.	.	.	.	8b-/	.
.	.	.	.	4a/	.
.	.	.	.	8g/,<	.
!LO:TX:t=P:problem=kreska pseudotaktowa	!	!	!	!	!
1D	.	.	.	8.f#X/L	.
.	.	.	.	16g/Jk	.
.	.	.	.	16a/LL	.
.	.	.	.	16d/	.
.	.	.	.	16e/	.
!	!	!	!	!LO:TX:b:t=P:problem=# below	!
.	.	.	.	16f#X/JJ	.
.	.	.	.	16g/LL	.
!	!	!	!	!LO:TX:b:t=P:problem=# below	!
.	.	.	.	16f#X/	.
.	.	.	.	16g/	.
!	!	!	!	!LO:TX:b:t=P:problem=# below	!
.	.	.	.	16f#X/	.
.	.	.	.	16g/	.
!	!	!	!	!LO:TX:b:t=P:problem=# below	!
.	.	.	.	16f#X/	.
.	.	.	.	16e/	.
!	!	!	!	!LO:TX:b:t=P:problem=# below	!
.	.	.	.	16f#X/JJ	.
=8-	=8-	=8-	=8-	=8-	=8-
*custos:D	*	*	*	*	*
0F	.	2r	.	1g	.
.	.	2G\	.	.	.
.	.	[>1B-	.	00r	.
*clefF4	*	*	*	*	*
=9-	=9-	=9-	=9-	=9-	=9-
!LO:LB:g=original	!	!	!	!	!
1.D	.	4.B-\]	.	.	.
.	.	8c\	.	.	.
.	.	8.A\L	.	.	.
.	.	16B-\Jk	.	.	.
!	!	!LO:TX:t=P:problem=kreska pseudotaktowa	!	!	!
.	.	4G\	.	.	.
.	.	4.A\	.	.	.
.	.	8G\	.	.	.
!LO:TX:t=P:problem=kreska pseudotaktowa	!	!	!	!	!
2D/	.	8.F\L	.	.	.
.	.	16G\Jk	.	.	.
.	.	8.A\L	.	.	.
!	!	!LO:TX:t=P:problem=kreska pseudotaktowa	!	!	!
.	.	16B-\Jk	.	.	.
=10-	=10-	=10-	=10-	=10-	=10-
2C/	.	4G\	.	.	.
.	.	8.F\L	.	.	.
.	.	16G\Jk	.	.	.
2AA/	.	8.A\L	.	.	.
.	.	16B-\Jk	.	.	.
*	*	*clefC4	*	*	*
!	!	!LO:LB:g=original	!	!	!
.	.	8.c\L	.	.	.
!	!	!LO:TX:t=P:problem=kreska pseudotaktowa	!	!	!
.	.	16d\Jk	.	.	.
!LO:TX:t=P:problem=kreska pseudotaktowa	!	!	!	!	!
1GG	.	4.B-\	.	00r	.
.	.	8A/	.	.	.
.	.	8B-\L	.	.	.
.	.	8A\	.	.	.
.	.	8B-\	.	.	.
!	!	!LO:TX:t=P:problem=kreska pseudotaktowa	!	!	!
.	.	8c\J	.	.	.
=11-	=11-	=11-	=11-	=11-	=11-
1D	.	[<4A/	.	.	.
.	.	16A/LL]	.	.	.
.	.	16D/	.	.	.
.	.	16E/	.	.	.
.	.	16F/JJ	.	.	.
.	.	16G/LL	.	.	.
.	.	16A/	.	.	.
.	.	16B-/	.	.	.
.	.	16c/JJ	.	.	.
!	!	!LO:TX:t=P:problem=kreska pseudotaktowa	!	!	!
.	.	[>4d\	.	.	.
!LO:TX:t=P:problem=kreska pseudotaktowa	!	!	!	!	!
1AA	.	4d\]	.	.	.
.	.	16e-X\LL	.	.	.
.	.	16d\	.	.	.
.	.	16c\	.	.	.
.	.	16B-\JJ	.	.	.
.	.	4.c\	.	.	.
.	.	16d\LL	.	.	.
!	!	!LO:TX:t=P:problem=kreska pseudotaktowa	!	!	!
!	!	!LO:TX:a:t=P:problem=♭ above	!	!	!
.	.	16e-X\JJ	.	.	.
=12-	=12-	=12-	=12-	=12-	=12-
2.D/	.	4B-\	.	.	.
.	.	16c\LL	.	.	.
.	.	16B-\	.	.	.
.	.	16c\	.	.	.
.	.	16d\JJ	.	.	.
.	.	4.A/	.	.	.
4C/	.	.	.	.	.
.	.	16B-\LL	.	.	.
!	!	!LO:TX:t=P:problem=kreska pseudotaktowa	!	!	!
.	.	16c\JJ	.	.	.
2BB-/	.	4G/	.	0r	.
.	.	16A\LL	.	.	.
.	.	16B-\	.	.	.
.	.	16c\	.	.	.
*	*	*custos:B	*	*	*
.	.	16A\JJ	.	.	.
!	!	!LO:LB:g=original	!	!	!
2GG/	.	8B-\L	.	.	.
.	.	8G\J	.	.	.
.	.	8.c\L	.	.	.
!	!	!LO:TX:t=P:problem=kreska pseudotaktowa	!	!	!
.	.	16B-\Jk	.	.	.
=13-	=13-	=13-	=13-	=13-	=13-
4D/	.	[<4A/	.	.	.
4C/	.	16A/]LL	.	.	.
.	.	16D/	.	.	.
.	.	16E/	.	.	.
.	.	16F/JJ	.	.	.
4BB-/	.	16G/LL	.	.	.
.	.	16A/	.	.	.
.	.	16B-/	.	.	.
.	.	16c/JJ	.	.	.
!	!	!LO:TX:t=P:problem=kreska pseudotaktowa	!	!	!
4AA/	.	[>4d\	.	.	.
!LO:TX:t=P:problem=kreska pseudotaktowa	!	!	!	!	!
1GG	.	16d\]LL	.	1r	.
.	.	16e-X\	.	.	.
.	.	16d\	.	.	.
.	.	16c\JJ	.	.	.
.	.	16B-\LL	.	.	.
.	.	16A\	.	.	.
.	.	16B-\	.	.	.
.	.	16c\JJ	.	.	.
.	.	8B-\	.	.	.
.	.	4A/	.	.	.
!	!	!LO:TX:t=P:problem=kreska pseudotaktowa	!	!	!
.	.	8G/	.	.	.
=14-	=14-	=14-	=14-	=14-	=14-
1D	.	8.F#X/L	.	4r	.
.	.	16G/Jk	.	.	.
.	.	16A/LL	.	4dd\	.
.	.	16D/	.	.	.
.	.	16E/	.	.	.
!	!	!LO:TX:a:t=P:problem=# above	!	!	!
.	.	16F#X/JJ	.	.	.
.	.	16G/LL	.	4.dd\	.
!	!	!LO:TX:a:t=P:problem=# above	!	!	!
.	.	16F#X/	.	.	.
.	.	16G/	.	.	.
!	!	!LO:TX:a:t=P:problem=# above	!	!	!
.	.	16F#X/	.	.	.
.	.	16G/	.	.	.
!	!	!LO:TX:a:t=P:problem=# above	!	!	!
.	.	16F#X/	.	.	.
*	*	*	*	*custos:b	*
!	!	!	!	!LO:TX:t=P:problem=kreska pseudotaktowa	!
.	.	16E/	.	8a/	.
*	*	*custos:G	*	*	*
!	!	!LO:TX:a:t=P:problem=# above	!	!	!
.	.	16F#X/JJ	.	.	.
*	*	*clefF4	*	*	*
!	!	!LO:LB:g=original	!	!LO:LB:g=original	!
0GG	.	2G\	.	8b-/L	.
.	.	.	.	8cc/	.
.	.	.	.	8a/	.
.	.	.	.	8b-/J	.
.	.	2GG/	.	16g/LL	.
.	.	.	.	16a/	.
.	.	.	.	16b-/	.
.	.	.	.	16cc/JJ	.
.	.	.	.	16dd\LL	.
.	.	.	.	16eeny\	.
.	.	.	.	16ff\	.
!	!	!	!	!LO:TX:t=P:problem=kreska pseudotaktowa	!
.	.	.	.	16dd\JJ	.
=15-	=15-	=15-	=15-	=15-	=15-
.	.	1r	.	4.gg\	.
.	.	.	.	8aa\	.
.	.	.	.	8.bb-\L	.
.	.	.	.	16bb-\Jk	.
.	.	.	.	8.aa\L	.
.	.	.	.	16gg\Jk	.
!LO:TX:t=P:problem=kreska pseudotaktowa	!	!	!	!	!
1D	.	4r	.	1aa	.
.	.	4D/	.	.	.
.	.	4.D/	.	.	.
!	!	!LO:TX:t=P:problem=kreska pseudotaktowa	!	!	!
.	.	8AA/	.	.	.
=16-	=16-	=16-	=16-	=16-	=16-
1GG	.	8BB-/L	.	2r	.
.	.	8C/	.	.	.
.	.	8AA/	.	.	.
.	.	8BB-/J	.	.	.
.	.	16GG/LL	.	4r	.
.	.	16AA/	.	.	.
.	.	16BB-/	.	.	.
.	.	16C/JJ	.	.	.
.	.	16D\LL	.	4dd\	.
.	.	16E\	.	.	.
.	.	16Fny\	.	.	.
!	!	!LO:TX:t=P:problem=kreska pseudotaktowa	!	!	!
.	.	16D\JJ	.	.	.
1.GG	.	2G\	.	4.dd\	.
.	.	.	.	8a/	.
.	.	1GG/	.	8b-/L	.
.	.	.	.	8cc/	.
.	.	.	.	8a/	.
.	.	.	.	8b-/J	.
=17-	=17-	=17-	=17-	=17-	=17-
.	.	.	.	16g/LL	.
.	.	.	.	16a/	.
.	.	.	.	16b-/	.
.	.	.	.	16cc/JJ	.
.	.	.	.	16dd\LL	.
.	.	.	.	16ee\	.
.	.	.	.	16ff\	.
.	.	.	.	16dd\JJ	.
!LO:TX:t=P:problem=kreska pseudotaktowa	!	!	!	!	!
!	!	!	!	!LO:LB:g=original	!
2GG/	.	2GG/	.	8gg\	.
.	.	.	.	4ff#X\	.
.	.	.	.	8ee\	.
2.D/	.	2D/	.	1ff#X	.
.	.	8r	.	.	.
.	.	8D\L	.	.	.
4E\	.	8D\	.	.	.
!	!	!LO:TX:t=P:problem=kreska pseudotaktowa	!	!	!
.	.	8E\J	.	.	.
=18-	=18-	=18-	=18-	=18-	=18-
2F\	.	4F\	.	2r	.
.	.	4E\	.	.	.
1D	.	4.D/	.	8r	.
.	.	.	.	8ffny\L	.
.	.	.	.	8ff\	.
*	*	*custos:F	*	*	*
.	.	8E\	.	8gg\J	.
!	!	!LO:LB:g=original	!	!	!
.	.	[>2F\	.	[>2aa\	.
2C#X/	.	8.F\]L	.	8.aa\]L	.
.	.	16G\Jk	.	16bb-\Jk	.
.	.	8.E\L	.	8.gg\L	.
.	.	16F\Jk	.	16aa\Jk	.
=19-	=19-	=19-	=19-	=19-	=19-
!LO:TX:t=P:problem=kreska pseudotaktowa	!	!	!	!	!
1D	.	1D	.	4.ff\	.
.	.	.	.	8ee\	.
.	.	.	.	8ff\L	.
.	.	.	.	8ee\	.
.	.	.	.	8ff\	.
.	.	.	.	8gg\J	.
1AA	.	4r	.	2ee\	.
.	.	4A\	.	.	.
.	.	8.A\L	.	4r	.
.	.	16B-\Jk	.	.	.
.	.	8.A\L	.	4aa\	.
!	!	!LO:TX:t=P:problem=kreska pseudotaktowa	!	!	!
.	.	16G\Jk	.	.	.
=20-	=20-	=20-	=20-	=20-	=20-
1.D	.	[>2F\	.	8.aa\L	.
.	.	.	.	16bb-\Jk	.
.	.	.	.	8.aa\L	.
.	.	.	.	16gg\Jk	.
.	.	8F\L]	.	[>2ff\	.
.	.	8D\J	.	.	.
.	.	8F\L	.	.	.
.	.	8E\J	.	.	.
.	.	2D/	.	8ff\]L	.
.	.	.	.	8dd\	.
.	.	.	.	8ff\	.
*	*	*	*	*custos:dd	*
.	.	.	.	8ee\J	.
*custos:E	*	*	*	*	*
!	!	!	!	!LO:LB:g=original	!
2G\	.	8r	.	2dd\	.
.	.	8G\L	.	.	.
.	.	8G\	.	.	.
!	!	!LO:TX:t=P:problem=kreska pseudotaktowa	!	!	!
.	.	8F\J	.	.	.
=21-	=21-	=21-	=21-	=21-	=21-
!LO:LB:g=original	!	!	!	!	!
2E-X\	.	2E-X\	.	8r	.
.	.	.	.	8gg\L	.
.	.	.	.	8gg\	.
.	.	.	.	8aa\J	.
!LO:TX:t=P:problem=kreska pseudotaktowa	!	!	!	!	!
2D/	.	8r	.	8ff#X\	.
.	.	8BB-/L	.	4gg\	.
.	.	8C/	.	.	.
!	!	!	!	!LO:TX:t=P:problem=kreska pseudotaktowa	!
.	.	8D/J,<	.	8ff#X\	.
2G\	.	4GG/	.	2gg\	.
*	*	*custos:G	*	*	*
.	.	4G\	.	.	.
!	!	!LO:LB:g=original	!	!	!
4.GG/	.	8G\L	.	4r	.
.	.	16G\L	.	.	.
.	.	16F\JJ	.	.	.
.	.	8G\L	.	4dd\	.
!	!	!LO:TX:t=P:problem=kreska pseudotaktowa	!	!	!
8AA/	.	8A\J	.	.	.
*	*	*clefC4	*	*	*
=22-	=22-	=22-	=22-	=22-	=22-
4BB-/	.	8B-\L	.	8dd\L	.
.	.	16B-\L	.	16dd\L	.
.	.	16A\JJ	.	16cc\J	.
4Cny/	.	8B-\L	.	8dd\	.
.	.	8c\J	.	8ee\J	.
4D/	.	8d\L	.	8ffny\L	.
.	.	16d\L	.	16ff\L	.
.	.	16c\JJ	.	16ee\J	.
!LO:TX:t=P:problem=kreska pseudotaktowa	!	!	!	!	!
4Eny\	.	8d\L	.	8ff\	.
!	!	!LO:TX:t=P:problem=kreska pseudotaktowa	!	!	!
.	.	8eny\J	.	8gg\J	.
4F\	.	4f\	.	8aa\	.
.	.	.	.	4gg\	.
4D/	.	4d\	.	.	.
!	!	!	!	!LO:TX:a:t=P:problem=# above	!
.	.	.	.	8ff#X\	.
2G\	.	4.g\	.	1gg\	.
.	.	8f\	.	.	.
=23-	=23-	=23-	=23-	=23-	=23-
1E-X	.	4.e-X\	.	.	.
.	.	8d\	.	.	.
.	.	8e-X\L	.	2gg\	.
.	.	8d\	.	.	.
.	.	8e-\	.	.	.
!	!	!LO:TX:t=P:problem=kreska pseudotaktowa	!	!	!
.	.	8f\J	.	.	.
1D	.	2d\	.	8ff#X\L	.
.	.	.	.	8aa\	.
.	.	.	.	8aa\	.
.	.	.	.	8gg\J	.
*	*	*clefF4	*	*	*
.	.	8r	.	8ff#X\L	.
.	.	8D/L	.	16dd\L	.
.	.	.	.	16ee\	.
!	!	!	!	!LO:TX:a:t=P:problem=# above	!
.	.	8D/	.	16ff#X\	.
.	.	.	.	16gg\	.
*	*	*custos:BB	*	*	*
.	.	8C/J	.	16aa\	.
!	!	!	!	!LO:TX:t=P:problem=kreska pseudotaktowa	!
!	!	!	!	!LO:TX:a:t=P:problem=# above	!
.	.	.	.	16ff#X\JJ	.
=24-	=24-	=24-	=24-	=24-	=24-
!LO:TX:t=P:problem=kreska pseudotaktowa	!	!	!	!	!
!	!	!LO:LB:g=original	!	!LO:LB:g=original	!
1GG	.	4BB-/	.	2gg\	.
.	.	16GG/LL	.	.	.
.	.	16AA/	.	.	.
.	.	16BB-/	.	.	.
.	.	16C/JJ	.	.	.
.	.	8D/L	.	2r	.
.	.	8GG/J	.	.	.
!	!	!LO:TX:t=P:problem=kreska pseudotaktowa	!	!	!
.	.	4G\	.	.	.
1D	.	2F#X\	.	8r	.
.	.	.	.	8aa\L	.
.	.	.	.	8aa\	.
.	.	.	.	8gg\J	.
.	.	8r	.	8ff#X\L	.
.	.	8D/L	.	16dd\L	.
.	.	.	.	16ee\	.
!	!	!	!	!LO:TX:a:t=P:problem=# above	!
.	.	8D/	.	16ff#X\	.
.	.	.	.	16gg\	.
.	.	8C/J	.	16aa\	.
!	!	!	!	!LO:TX:a:t=P:problem=# above	!
!	!	!	!	!LO:TX:t=P:problem=kreska pseudotaktowa	!
.	.	.	.	16ff#X\JJ	.
=25-	=25-	=25-	=25-	=25-	=25-
1GG	.	4BB-/	.	2gg\	.
.	.	16GG/LL	.	.	.
.	.	16AA/	.	.	.
.	.	16BB-/	.	.	.
.	.	16C/JJ	.	.	.
.	.	8D/L	.	8r	.
.	.	8GG/J	.	8dd\L	.
!	!	!LO:TX:t=P:problem=kreska pseudotaktowa	!	!	!
.	.	4G\	.	8dd\	.
.	.	.	.	8cc\J,<	.
!	!	!LO:TX:t=P:problem=mixed beam	!	!	!
2.BB-/	.	8D/L	.	8b-\L	.
.	.	8d\	.	8ffny\	.
.	.	8d\	.	8ff\	.
!	!	!	!	!LO:TX:a:t=P:problem=♭ above	!
.	.	8c\J	.	8ee-X\J	.
!	!	!LO:TX:t=P:problem=mixed beam	!	!	!
.	.	8B-\L	.	8dd\L	.
.	.	8BB-/	.	16ff\L	.
!	!	!	!	!LO:TX:a:t=P:problem=♭ above	!
.	.	.	.	16ee-X\J	.
4AA/	.	8BB-/	.	8dd\	.
!	!	!LO:TX:t=P:problem=kreska pseudotaktowa	!	!LO:TX:t=P:problem=kreska pseudotaktowa	!
.	.	8AA/J	.	8cc\J	.
=26-	=26-	=26-	=26-	=26-	=26-
2GG/	.	2GG/	.	8b-/	.
.	.	.	.	16ee-X\LL	.
.	.	.	.	16dd\J	.
.	.	.	.	8cc\	.
.	.	.	.	8b-\J	.
!LO:TX:t=P:problem=kreska pseudotaktowa	!	!	!	!	!
2FF#X/	.	2FF#X/	.	8a/	.
.	.	.	.	8dd\L	.
.	.	.	.	8dd\	.
!	!	!	!	!LO:TX:t=P:problem=kreska pseudotaktowa	!
.	.	.	.	8cc\J	.
1GG	.	2GG/	.	4b-/	.
.	.	.	.	16g/LL	.
.	.	.	.	16a/	.
.	.	.	.	16b-/	.
*	*	*	*	*custos:dd	*
.	.	.	.	16cc/JJ	.
*	*	*custos:G	*	*	*
!	!	!	!	!LO:LB:g=original	!
.	.	8r	.	8dd\L	.
!	!	!LO:LB:g=original	!	!	!
.	.	8G\L	.	8g\J	.
.	.	8B-\	.	4gg\	.
!	!	!LO:TX:t=P:problem=kreska pseudotaktowa	!	!	!
.	.	8c\J	.	.	.
=27-	=27-	=27-	=27-	=27-	=27-
1D	.	8d\L	.	2ff#X\	.
.	.	8A\	.	.	.
.	.	8A\	.	.	.
.	.	8G\J	.	.	.
.	.	8F#X\L	.	8r	.
.	.	16D\L	.	8dd\L	.
.	.	16Eny\JJ	.	.	.
!	!	!LO:TX:a:t=P:problem=# above	!	!	!
.	.	16F#X\LL	.	8dd\	.
.	.	16G\	.	.	.
.	.	16A\	.	8cc\J	.
!	!	!LO:TX:a:t=P:problem=# above	!	!	!
!	!	!LO:TX:t=P:problem=kreska pseudotaktowa	!	!	!
.	.	16F#X\JJ	.	.	.
2G\	.	2G\	.	8b-/L	.
.	.	.	.	16g/L	.
.	.	.	.	16a/	.
.	.	.	.	16b-/	.
.	.	.	.	16cc/	.
.	.	.	.	16dd/	.
.	.	.	.	16b-/JJ	.
2F#X\	.	8r	.	2a/	.
.	.	8d\L	.	.	.
.	.	8d\	.	.	.
!	!	!LO:TX:t=P:problem=kreska pseudotaktowa	!	!	!
.	.	8c\J	.	.	.
=28-	=28-	=28-	=28-	=28-	=28-
2.G\	.	8.B-\L	.	8r	.
.	.	.	.	8dd\L	.
.	.	16c\Jk	.	.	.
.	.	8.A\L	.	8dd\	.
.	.	.	.	8cc\J	.
.	.	16B-\Jk	.	.	.
.	.	8.G\L	.	8.b-/L	.
.	.	16A\Jk	.	16cc/Jk	.
*custos:E	*	*	*	*	*
4Fny\	.	8.Fny\L	.	8.a/L	.
!	!	!LO:TX:t=P:problem=kreska pseudotaktowa	!	!LO:TX:t=P:problem=kreska pseudotaktowa	!
.	.	16G\Jk	.	16b-/Jk	.
!LO:LB:g=original	!	!	!	!	!
2E-X\	.	8.E-X\L	.	2g/	.
.	.	16D\Jk	.	.	.
.	.	8.E-\L	.	.	.
.	.	16C\Jk	.	.	.
*	*	*custos:GG	*	*	*
2D/	.	2D/,<	.	8r	.
.	.	.	.	8dd\L	.
.	.	.	.	8dd\	.
.	.	.	.	8cc\J,<	.
=29-	=29-	=29-	=29-	=29-	=29-
!	!	!LO:LB:g=original	!	!	!
1G	.	2GG/	.	8b-\L	.
.	.	.	.	16dd\L	.
.	.	.	.	16cc\JJ	.
.	.	.	.	8b-/L	.
.	.	.	.	8g/J	.
.	.	8r	.	8dd/L	.
.	.	8G\L	.	8b-/	.
.	.	8G\	.	8b-/	.
!	!	!LO:TX:t=P:problem=kreska pseudotaktowa	!	!LO:TX:t=P:problem=kreska pseudotaktowa	!
.	.	8F\J	.	8a/J	.
2C/	-	8E-X\L	.	2g/	.
.	.	16G\L	.	.	.
.	.	16F\JJ	.	.	.
.	.	8E-X/L	.	.	.
.	.	8C/J	.	.	.
!	!	!LO:TX:t=P:problem=mixed beam	!	!	!
2G\	.	8GG/L	.	8r	.
.	.	8G\	.	8bb-\L	.
.	.	8G\	.	8bb-\	.
*	*	*	*	*custos:gg	*
!	!	!LO:TX:t=P:problem=kreska pseudotaktowa	!	!	!
.	.	8F\J	.	8aa\J	.
=30-	=30-	=30-	=30-	=30-	=30-
!LO:TX:t=P:problem=kreska pseudotaktowa	!	!	!	!	!
!	!	!	!	!LO:LB:g=original	!
1E-X	.	4.E-X\	.	4.gg\	.
.	.	8D/	.	8ffny\	.
.	.	8E-X\L	.	8gg\L	.
.	.	8D\	.	8ff\	.
.	.	8E-\	.	8gg\	.
.	.	8F\J	.	8aa\J	.
!	!	!LO:TX:t=P:problem=kreska pseudotaktowa	!	!	!
1D	.	1D	.	8ff#X\L	.
.	.	.	.	8aa\	.
.	.	.	.	8aa\	.
.	.	.	.	8gg\J	.
.	.	.	.	8ff#X\	.
.	.	.	.	16aa\LL	.
.	.	.	.	16gg\	.
!	!	!	!	!LO:TX:a:t=P:problem=# above	!
.	.	.	.	16ff#X\	.
.	.	.	.	16dd\JJ	.
.	.	.	.	16aa\LL	.
!	!	!	!	!LO:TX:a:t=P:problem=# above	!
.	.	.	.	16ff#X\JJ	.
*	*	*clefC4	*	*	*
=31-	=31-	=31-	=31-	=31-	=31-
1G	.	4r	.	1gg	.
.	.	4G/	.	.	.
.	.	4G/	.	.	.
.	.	4G/,<	.	.	.
2D/	.	16D/LL	.	1r	.
.	.	16Eny/	.	.	.
.	.	16F/	.	.	.
.	.	16G/JJ	.	.	.
.	.	16A\LL	.	.	.
.	.	16B-\	.	.	.
.	.	16c\	.	.	.
*	*	*custos:e-	*	*	*
.	.	16d\JJ	.	.	.
!	!	!LO:LB:g=original	!	!	!
2E-X\	.	4e-X\	.	.	.
.	.	4E-X/	.	.	.
=32-	=32-	=32-	=32-	=32-	=32-
!LO:TX:t=P:problem=kreska pseudotaktowa	!	!	!	!	!
1BB-	.	1B-	.	4r	.
.	.	.	.	4dd\	.
.	.	.	.	4dd\	.
.	.	.	.	4dd\	.
*	*	*clefF4	*	*	*
2F\	.	1r	.	16a/LL	.
.	.	.	.	16b-/	.
.	.	.	.	16cc/	.
.	.	.	.	16dd/JJ	.
.	.	.	.	16eeny\LL	.
.	.	.	.	16ffny\	.
.	.	.	.	16gg\	.
*	*	*	*	*custos:bb	*
.	.	.	.	16aa\JJ	.
!	!	!	!	!LO:LB:g=original	!
2G\	.	.	.	4bb-\	.
!	!	!	!	!LO:TX:t=P:problem=kreska pseudotaktowa	!
.	.	.	.	4b-/	.
=33-	=33-	=33-	=33-	=33-	=33-
!LO:TX:t=P:problem=kreska pseudotaktowa	!	!	!	!LO:TX:t=P:problem=mixed beam	!
1D	.	2r	.	8a/L	.
.	.	.	.	8aa\	.
.	.	.	.	8aa\	.
.	.	.	.	8aa\J	.
.	.	8r	.	4.ff\	.
.	.	8d\L	.	.	.
.	.	8d\	.	.	.
!	!	!LO:TX:t=P:problem=kreska pseudotaktowa	!	!LO:TX:t=P:problem=kreska pseudotaktowa	!
.	.	8c\J	.	8dd\	.
2G\	.	8B-\L	.	8dd\L	.
.	.	8G\	.	8dd\J	.
.	.	8G\	.	8b-/L	.
.	.	8G\J	.	8g/J	.
*	*	*	*	*clefC1	*
4C/	.	8Eny/L	.	8g/L	.
.	.	8C/	.	8g/	.
4C/	.	8C/	.	8e/	.
!	!	!LO:TX:t=P:problem=kreska pseudotaktowa	!	!LO:TX:t=P:problem=kreska pseudotaktowa	!
.	.	8C/J	.	8c/J	.
=34-	=34-	=34-	=34-	=34-	=34-
2F\	.	8GG/L	.	8c/L	.
.	.	8FFny/	.	8c/	.
.	.	8FF/	.	8A/J	.
*	*	*	*	*clefG2	*
.	.	8FF/J	.	8aa\	.
!LO:TX:t=P:problem=kreska pseudotaktowa	!	!	!	!	!
2D/	.	8DD/L	.	8aa\L	.
*	*	*	*	*custos:ff	*
.	.	8D/	.	8aa\J	.
!	!	!	!	!LO:LB:g=original	!
.	.	8D/	.	8ff\L	.
!	!	!LO:TX:t=P:problem=kreska pseudotaktowa	!	!LO:TX:t=P:problem=kreska pseudotaktowa	!
.	.	8D/J	.	8dd\J	.
4BB-/	.	8BB-/L	.	8dd\L	.
.	.	8GG/	.	8dd\J	.
4GG/	.	8GG/	.	8b-/L	.
.	.	8GG/J	.	8b-/J	.
!	!	!LO:TX:t=P:problem=kreska pseudotaktowa	!	!	!
2D/	.	2D/	.	8a/	.
.	.	.	.	8dd\L	.
.	.	.	.	8dd\	.
!	!	!	!	!LO:TX:t=P:problem=kreska pseudotaktowa	!
.	.	.	.	8dd\J	.
=35-	=35-	=35-	=35-	=35-	=35-
!	!	!LO:TX:t=P:problem=mixed beam	!	!	!
4GG/	.	8GG/L	.	4b-/	.
.	.	8G\	.	.	.
4GG/	.	8G\	.	8r	.
*	*	*custos:c	*	*	*
.	.	8G\J	.	8g/	.
!LO:TX:t=P:problem=kreska pseudotaktowa	!	!	!	!	!
!	!	!LO:LB:g=original	!	!	!
2C/	.	8.c\L	.	8g/L	.
.	.	.	.	8g/J	.
.	.	16B-\Jk	.	.	.
.	.	8.A\L	.	8.cc/L	.
!	!	!LO:TX:t=P:problem=kreska pseudotaktowa	!	!LO:TX:t=P:problem=kreska pseudotaktowa	!
.	.	16G\Jk	.	16b-/Jk	.
4FFny/	.	8.F\L	.	8.a/L	.
.	.	16E\Jk	.	16g/Jk	.
4FF/	.	8.D/L	.	8.fny/L	.
.	.	16C/Jk	.	16e/Jk	.
*	*	*	*	*custos:ff	*
2BB-/	.	8.BB-/L	.	2d/	.
.	.	16C/Jk	.	.	.
.	.	8.BB-/L	.	.	.
!	!	!LO:TX:t=P:problem=kreska pseudotaktowa	!	!	!
.	.	16AA/Jk	.	.	.
=36-	=36-	=36-	=36-	=36-	=36-
*custos:AA	*	*	*	*	*
!	!	!	!	!LO:LB:g=original	!
2GG/	.	16GG/LL	.	1r	.
.	.	16AA/	.	.	.
.	.	16BB-/	.	.	.
.	.	16C/JJ	.	.	.
.	.	16D\LL	.	.	.
.	.	16E\	.	.	.
.	.	16F\	.	.	.
.	.	16G\JJ	.	.	.
!LO:TX:t=P:problem=kreska pseudotaktowa	!	!	!	!	!
!LO:LB:g=original	!	!	!	!	!
2AA/	.	4A\	.	.	.
!	!	!LO:TX:t=P:problem=kreska pseudotaktowa	!	!	!
.	.	4AA/	.	.	.
1D	.	8DD/L	.	8r	.
.	.	8D/	.	8ff\L	.
.	.	8C/	.	8ee\	.
.	.	8BB-/J	.	8dd\J	.
!	!	!	!	!LO:TX:a:t=P:problem=# above	!
.	.	8AA/L	.	8cc#X\L	.
.	.	8D/J	.	8ff\J	.
.	.	16C/LL	.	16ee\LL	.
.	.	16D/	.	16ff\	.
.	.	16BB-/	.	16dd\	.
*	*	*custos:AA	*	*	*
!	!	!LO:TX:t=P:problem=kreska pseudotaktowa	!	!	!
!	!	!	!	!LO:TX:t=P:problem=kreska pseudotaktowa	!
.	.	16C/JJ	.	16ee\JJ	.
=37-	=37-	=37-	=37-	=37-	=37-
!	!	!LO:LB:g=original	!	!	!
2AA/	.	8AA/L	.	8ccny\L	.
.	.	8BB-/	.	8dd\	.
.	.	8AA/	.	8cc\	.
.	.	8GG/J	.	8b-\J	.
2BB-/	.	8FF/L	.	8a/	.
.	.	8BB-/J	.	8dd\	.
.	.	16AA/LL	.	16cc\LL	.
.	.	16BB-/	.	16dd\	.
.	.	16GG/	.	16b-\	.
!	!	!LO:TX:t=P:problem=kreska pseudotaktowa	!	!	!
.	.	16AA/JJ	.	16cc\JJ	.
!	!	!LO:TX:t=P:problem=mixed beam	!	!LO:TX:t=P:problem=mixed beam	!
1FF	.	8FF/L	.	8a/L	.
.	.	8F\	.	8aa\	.
.	.	8E\	.	8gg\	.
*	*	*	*	*custos:ee	*
.	.	8D\J	.	8ff\J	.
!	!	!	!	!LO:PB:g=original	!
.	.	8C\L	.	8ee\L	.
.	.	8F\J	.	8aa\J	.
.	.	16E\LL	.	16gg\LL	.
.	.	16F\	.	16aa\	.
.	.	16D\	.	16ff\	.
!	!	!LO:TX:t=P:problem=kreska pseudotaktowa	!	!LO:TX:t=P:problem=kreska pseudotaktowa	!
.	.	16E\JJ	.	16gg\JJ	.
=38-	=38-	=38-	=38-	=38-	=38-
2C/	.	8C/L	.	8ee\L	.
.	.	8D/	.	8ff\	.
.	.	8C/	.	8ee\	.
.	.	8BB-/J	.	8dd\J	.
!LO:TX:t=P:problem=kreska pseudotaktowa	!	!	!	!	!
2D/	.	8AA/L	.	8cc\L	.
.	.	8D/J	.	8ff\J	.
.	.	16C/LL	.	16ee\LL	.
.	.	16D/	.	16ff\	.
.	.	16BB-/	.	16dd\	.
!	!	!LO:TX:t=P:problem=kreska pseudotaktowa	!	!LO:TX:t=P:problem=kreska pseudotaktowa	!
.	.	16C/JJ	.	16ee\JJ	.
1AA	.	8AA/L	.	8cc#X\L	.
.	.	8FF/	.	8aa\	.
.	.	8GG/	.	8gg\	.
*	*	*custos:AA	*	*	*
.	.	8DD/J	.	8ff\J	.
!	!	!LO:TX:t=P:problem=kreska pseudotaktowa	!	!	!
!	!	!LO:PB:g=original	!	!	!
.	.	2AA/	.	4.ee\	.
.	.	.	.	8dd\	.
=39-	=39-	=39-	=39-	=39-	=39-
!LO:TX:t=P:problem=kreska pseudotaktowa	!	!	!	!	!
1DD	.	2DD/	.	1dd	.
*	*	*clefC4	*	*	*
.	.	4r	.	.	.
!	!	!LO:TX:t=P:problem=kreska pseudotaktowa	!	!	!
.	.	4d\	.	.	.
2D/	.	4d\	.	4r	.
.	.	4d\	.	4aa\	.
!	!	!LO:TX:t=P:problem=kreska pseudotaktowa	!	!	!
4D/	.	2d\	.	4aa\	.
*	*	*	*	*custos:aa	*
4D/	.	.	.	4aa\	.
=40-	=40-	=40-	=40-	=40-	=40-
!	!	!	!	!LO:LB:g=original	!
4C/	.	16r	.	2aa\	.
.	.	16d\LL	.	.	.
.	.	16c\	.	.	.
.	.	16B-\JJ	.	.	.
4AA/	.	8A\L	.	.	.
.	.	8B-\J	.	.	.
!	!	!LO:TX:t=P:problem=kreska pseudotaktowa	!	!	!
!	!	!	!	!LO:LB:g=original	!
2.C/	.	2c\	.	16r	.
.	.	.	.	16aa\LL	.
.	.	.	.	16gg\	.
.	.	.	.	16ff\JJ	.
.	.	.	.	8ee\L	.
.	.	.	.	8ff\J	.
.	.	16r	.	2gg\	.
.	.	16c\LL	.	.	.
.	.	16B-\	.	.	.
.	.	16A\JJ	.	.	.
4C/	.	8G/L	.	.	.
.	.	8A/J	.	.	.
!	!	!LO:TX:t=P:problem=kreska pseudotaktowa	!	!	!
2.BB-/	.	2B-\	.	16r	.
.	.	.	.	16aa\LL	.
.	.	.	.	16gg\	.
.	.	.	.	16ff\JJ	.
.	.	.	.	8ee\L	.
!	!	!	!	!LO:TX:t=P:problem=kreska pseudotaktowa	!
.	.	.	.	8ff\J	.
=41-	=41-	=41-	=41-	=41-	=41-
.	.	16r	.	2gg\	.
.	.	16e-X\LL	.	.	.
.	.	16d\	.	.	.
.	.	16c\JJ	.	.	.
4AA/	.	8B-\L	.	.	.
*	*	*custos:G	*	*	*
.	.	8A\J	.	.	.
!LO:TX:t=P:problem=kreska pseudotaktowa	!	!	!	!	!
!	!	!LO:LB:g=original	!	!	!
2GG/	.	4G/	.	16r	.
.	.	.	.	16bb-\LL	.
.	.	.	.	16aa\	.
.	.	.	.	16gg\JJ	.
!	!	!LO:TX:t=P:problem=kreska pseudotaktowa	!	!	!
.	.	4r	.	8ff\L	.
.	.	.	.	8gg\J	.
2D/	.	16r	.	2aa\	.
.	.	16d\LL	.	.	.
.	.	16c\	.	.	.
.	.	16B-\JJ	.	.	.
.	.	16A/LL	.	.	.
.	.	16G/	.	.	.
.	.	16F/	.	.	.
.	.	16E/JJ	.	.	.
!	!	!LO:TX:t=P:problem=kreska pseudotaktowa	!	!	!
2.D/	.	2D/	.	16r	.
.	.	.	.	16aa\LL	.
.	.	.	.	16gg\	.
.	.	.	.	16ff\JJ	.
.	.	.	.	16ee\LL	.
.	.	.	.	16dd\	.
.	.	.	.	16ccny\	.
!	!	!	!	!LO:TX:t=P:problem=kreska pseudotaktowa	!
.	.	.	.	16b-\JJ	.
*	*	*clefF4	*	*	*
=42-	=42-	=42-	=42-	=42-	=42-
*	*	*	*	*custos:a	*
.	.	16r	.	2a/	.
.	.	16D/LL	.	.	.
.	.	16C/	.	.	.
.	.	16BB-/	.	.	.
4D/	.	16AA/	.	.	.
.	.	16GG/	.	.	.
.	.	16FF/	.	.	.
.	.	16EE/JJ	.	.	.
*	*	*	*	*clefC3	*
!LO:TX:t=P:problem=kreska pseudotaktowa	!	!LO:TX:t=P:problem=kreska pseudotaktowa	!	!	!
2D/	.	2DD/	.	16r	.
.	.	.	.	16a\LL	.
.	.	.	.	16g\	.
.	.	.	.	16f\JJ	.
.	.	.	.	16e\LL	.
.	.	.	.	16d\	.
.	.	.	.	16c\	.
.	.	.	.	16B-\JJ	.
4C/	.	16r	.	2A/	.
.	.	16D/LL	.	.	.
.	.	16C/	.	.	.
.	.	16BB-/JJ	.	.	.
*custos:C	*	*	*	*	*
4AA/	.	8AA/L	.	.	.
.	.	8BB-/J	.	.	.
*	*	*	*	*clefG2	*
!LO:LB:g=original	!	!LO:TX:t=P:problem=kreska pseudotaktowa	!	!	!
2.C/	.	2C/	.	16r	.
.	.	.	.	16a/LL	.
.	.	.	.	16g/	.
.	.	.	.	16f/JJ	.
.	.	.	.	8e/L	.
!	!	!	!	!LO:TX:t=P:problem=kreska pseudotaktowa	!
.	.	.	.	8f/J	.
=43-	=43-	=43-	=43-	=43-	=43-
.	.	16r	.	2g/	.
.	.	16C/LL	.	.	.
.	.	16BB-/	.	.	.
.	.	16AA/JJ	.	.	.
4C/	.	8GG/L	.	.	.
.	.	8AA/J	.	.	.
*	*	*custos:E	*	*	*
!	!	!LO:TX:t=P:problem=kreska pseudotaktowa	!	!	!
2.BB-/	.	2BB-/	.	16r	.
.	.	.	.	16a/LL	.
.	.	.	.	16g/	.
.	.	.	.	16f/JJ	.
.	.	.	.	8e/L	.
!	!	!	!	!LO:TX:t=P:problem=kreska pseudotaktowa	!
.	.	.	.	8f/J	.
!	!	!LO:LB:g=original	!	!	!
.	.	16r	.	2g/	.
.	.	16E-X/LL	.	.	.
.	.	16D/	.	.	.
.	.	16C/JJ	.	.	.
4AA/	.	8BB-/L	.	.	.
.	.	8AA/J	.	.	.
!LO:TX:t=P:problem=kreska pseudotaktowa	!	!	!	!	!
2GG/	.	4GG/	.	16r	.
.	.	.	.	16b-/LL	.
.	.	.	.	16a/	.
.	.	.	.	16g/JJ	.
.	.	8FF/L	.	8f/L	.
!	!	!LO:TX:t=P:problem=kreska pseudotaktowa	!	!	!
.	.	8EE/J	.	8g/J	.
=44-	=44-	=44-	=44-	=44-	=44-
2.D/	.	4.DD/	.	4.a/	.
*	*	*	*	*custos:aa	*
.	.	8F#X\	.	8aa\	.
!	!	!	!	!LO:LB:g=original	!
.	.	4F#\	.	4aa\	.
4D/	.	4F#\	.	4aa\	.
2G\	.	2G\	.	2bb-\	.
2C/	.	8r	.	8r	.
!	!	!	!LO:DY:t=forte	!	!LO:DY:t=forte
.	.	8C/L	f	8gg\L	f
.	.	8C/	.	8gg\	.
!	!	!	!	!LO:TX:t=P:problem=kreska pseudotaktowa	!
.	.	8C/J	.	8gg\J	.
=45-	=45-	=45-	=45-	=45-	=45-
4F\	.	4.Fny\	.	4.aa\	.
4E-X\	.	.	.	.	.
.	.	8E-X\	.	8gg\	.
2D/	.	8.D-X/L	.	8.ff#X\L	.
.	.	16E-/Jk	.	16gg\Jk	.
!	!	!LO:TX:t=P:problem=kreska pseudotaktowa	!	!	!
.	.	4D-/	.	8.aa\L	.
!	!	!	!	!LO:TX:a:t=P:problem=# above	!
.	.	.	.	16gg#X\Jk	.
2GG/	.	2GG/	.	2gg#\	.
!LO:TX:t=P:problem=kreska pseudotaktowa	!	!	!	!	!
2C/	.	8r	.	8r	.
!	!	!	!LO:DY:t=piano	!	!LO:DY:t=Piano.
.	.	8C/L	p	8gg#\L	p
.	.	8C/	.	8gg#\	.
!	!	!LO:TX:t=P:problem=kreska pseudotaktowa	!	!LO:TX:t=P:problem=kreska pseudotaktowa	!
.	.	8C/J	.	8gg#\J	.
=46-	=46-	=46-	=46-	=46-	=46-
4F\	.	4.F\	.	4.aa\	.
4E-X\	.	.	.	.	.
*	*	*custos:D	*	*	*
.	.	8E-X\	.	8ggny\	.
!	!	!LO:LB:g=original	!	!	!
2D/	.	8.Dny/L	.	8.ff#X\L	.
.	.	16E-X/Jk	.	16gg\Jk	.
!	!	!LO:TX:t=P:problem=kreska pseudotaktowa	!	!	!
.	.	4D/	.	8.aa\L	.
.	.	.	.	16ff#X\Jk	.
0GG	.	2G\	.	2gg\	.
*	*	*	*	*custos:g	*
.	.	16r	.	2r	.
.	.	16GG/LL	.	.	.
.	.	16AA/	.	.	.
.	.	16BB-/JJ	.	.	.
.	.	16C\LL	.	.	.
.	.	16D\	.	.	.
.	.	16E-\	.	.	.
!	!	!LO:TX:t=P:problem=kreska pseudotaktowa	!	!	!
.	.	16F#X\JJ	.	.	.
=47-	=47-	=47-	=47-	=47-	=47-
!	!	!	!	!LO:LB:g=original	!
.	.	2G\	.	16r	.
.	.	.	.	16g/LL	.
.	.	.	.	16a/	.
!	!	!	!	!LO:TX:b:t=P:problem=# below	!
!	!	!	!	!LO:N:acc=#	!
.	.	.	.	16bn/JJ	.
.	.	.	.	16cc\LL	.
.	.	.	.	16dd\	.
.	.	.	.	16ee\	.
!	!	!	!	!LO:TX:a:t=P:problem=# above	!
.	.	.	.	16ff#X\JJ	.
.	.	8r	.	8gg\L	.
!	!	!LO:N:acc=#	!	!	!
.	.	8Bn\L	.	8dd\	.
.	.	8B\	.	8dd\	.
!	!	!LO:TX:t=P:problem=kreska pseudotaktowa	!	!LO:TX:t=P:problem=kreska pseudotaktowa	!
.	.	8B\J	.	8dd\J	.
!LO:TX:t=P:problem=kreska pseudotaktowa	!	!	!	!	!
1C	.	2c\	.	8ee\L	.
.	.	.	.	16gg\L	.
.	.	.	.	16aa\JJ	.
.	.	.	.	8gg\L	.
.	.	.	.	8ffny\J	.
!	!	!	!	!LO:TX:t=P:problem=kreska pseudotaktowa	!
.	.	8r	.	2ee\	.
.	.	16c\LL	.	.	.
.	.	16d\J	.	.	.
.	.	8c\	.	.	.
.	.	8B\J	.	.	.
=48-	=48-	=48-	=48-	=48-	=48-
1FF	.	8A\L	.	8r	.
.	.	16A\L	.	16cc\LL	.
.	.	16B-y\J	.	16dd\JJ	.
.	.	8A\	.	8cc\L	.
.	.	8G\J	.	8b-y\J	.
.	.	8Fny\L	.	8a/L	.
.	.	16F\L	.	16a/L	.
.	.	16G\J	.	16b-/JJ	.
.	.	8F\	.	8a/L	.
*	*	*custos:D	*	*	*
!	!	!LO:TX:t=P:problem=kreska pseudotaktowa	!	!	!
!	!	!	!	!LO:TX:t=P:problem=kreska pseudotaktowa	!
.	.	8E-X\J	.	8g/J	.
!	!	!LO:LB:g=original	!	!	!
2.BB-/	.	8D-X/L	.	8f/L	.
.	.	16D-/L	.	16f/L	.
.	.	16E-/J	.	16g/JJ	.
.	.	8D-/	.	8f/L	.
*	*	*	*	*custos:d	*
.	.	8C/J	.	8e/J	.
!	!	!	!	!LO:LB:g=original	!
.	.	8.BB-/L	.	32d/LLL	.
.	.	.	.	32e/	.
.	.	.	.	32f/	.
.	.	.	.	32g/JJJ	.
.	.	.	.	32a/LLL	.
.	.	.	.	32b-/	.
.	.	16AA/Jk	.	32cc/	.
.	.	.	.	32a/JJJ	.
8AA/L	.	16GG/LL	.	[>4dd\	.
.	.	16AA/	.	.	.
8GG/J	.	16BB-/	.	.	.
!	!	!LO:TX:t=P:problem=kreska pseudotaktowa	!	!	!
.	.	16C/JJ	.	.	.
=49-	=49-	=49-	=49-	=49-	=49-
*custos:GG	*	*	*	*	*
1D	.	8Dny/L	.	8dd\]L	.
.	.	16C/L	.	16ee-X\L	.
.	.	16BB-/	.	16dd\JJ	.
.	.	16AA/	.	16cc/LL	.
.	.	16GG/	.	16b-/	.
.	.	16FF/	.	16a/	.
.	.	16EE/JJ	.	16g/JJ	.
!	!	!LO:TX:t=P:problem=kreska pseudotaktowa	!	!	!
.	.	2DD/	.	4.a/	.
!	!	!	!	!LO:TX:t=P:problem=kreska pseudotaktowa	!
.	.	.	.	8b-/	.
!LO:LB:g=original	!	!	!	!	!
0GG	.	1GG	.	4g/	.
.	.	.	.	4dd\	.
.	.	.	.	4dd\	.
.	.	.	.	4dd\	.
=50-	=50-	=50-	=50-	=50-	=50-
.	.	4r	.	1gg	.
.	.	4GG/	.	.	.
.	.	4GG/	.	.	.
.	.	4GG/	.	.	.
*	*	*	*	*clefG1	*
!LO:TX:t=P:problem=kreska pseudotaktowa	!	!LO:TX:t=P:problem=kreska pseudotaktowa	!	!	!
0C	.	1C	.	8r	.
.	.	.	.	8gg\L	.
.	.	.	.	8gg\	.
.	.	.	.	8gg\J	.
.	.	.	.	8cc/	.
.	.	.	.	8gg\L	.
.	.	.	.	8aa\	.
*	*	*	*	*custos:ccc	*
!	!	!	!	!LO:TX:a:t=P:problem=# above	!
!	!	!	!	!LO:N:acc=#	!
.	.	.	.	8bbn\J	.
=51-	=51-	=51-	=51-	=51-	=51-
!	!	!	!	!LO:LB:g=original	!
.	.	8r	.	2.ccc\	.
.	.	8C/L	.	.	.
.	.	8C/	.	.	.
.	.	8C/J	.	.	.
.	.	8Eny\L	.	.	.
.	.	8C\	.	.	.
.	.	8D\	.	4bb-y\	.
!	!	!LO:TX:t=P:problem=kreska pseudotaktowa	!	!	!
.	.	8E\J	.	.	.
1F	.	4.F\	.	4.aa\	.
*	*	*custos:F	*	*	*
.	.	8G\	.	8bb-\	.
!	!	!LO:LB:g=original	!	!	!
.	.	8.F\L	.	8.aa\L	.
.	.	16G\Jk	.	16bb-\Jk	.
.	.	8.F\L	.	8.aa\L	.
!	!	!LO:TX:t=P:problem=kreska pseudotaktowa	!	!LO:TX:t=P:problem=kreska pseudotaktowa	!
.	.	16G\Jk	.	16bb-\Jk	.
=52-	=52-	=52-	=52-	=52-	=52-
1E-X	.	4.E-X\	.	4.gg\	.
.	.	8F\	.	8aa\	.
.	.	8.E-X\L	.	8.gg\L	.
.	.	16F\Jk	.	16aa\Jk	.
.	.	8.E-\L	.	8.gg\L	.
!	!	!	!	!LO:TX:t=P:problem=kreska pseudotaktowa	!
.	.	16F\Jk	.	16aa\Jk	.
1D	.	1D	.	8.ff#X\L	.
!	!	!	!	!LO:TX:a:t=P:problem=# above	!
!	!	!	!	!LO:N:acc=#	!
.	.	.	.	16bn\Jk	.
.	.	.	.	16dd\LL	.
.	.	.	.	16eeny\	.
.	.	.	.	16ff#\	.
!	!	!	!	!LO:TX:a:t=P:problem=# above	!
.	.	.	.	16gg#X\JJ	.
.	.	.	.	16aa\LL	.
.	.	.	.	16gg#\JJ	.
.	.	.	.	16ee\LL	.
!	!	!	!	!LO:TX:a:t=P:problem=# above	!
.	.	.	.	16ff#X\JJ	.
.	.	.	.	32gg#\LLL	.
!	!	!	!	!LO:TX:a:t=P:problem=# above	!
.	.	.	.	32ff#X\	.
.	.	.	.	32gg#\	.
!	!	!	!	!LO:TX:a:t=P:problem=# above	!
.	.	.	.	32ff#X\	.
.	.	.	.	32gg#\	.
!	!	!	!	!LO:TX:a:t=P:problem=# above	!
.	.	.	.	32ff#X\	.
.	.	.	.	32ee\	.
*	*	*	*	*custos:gg	*
!	!	!	!	!LO:TX:a:t=P:problem=# above	!
.	.	.	.	32ff#X\JJJ	.
=53-	=53-	=53-	=53-	=53-	=53-
!	!	!	!	!LO:LB:g=original	!
2GG/	.	8r	.	2ggny\	.
.	.	8G\L	.	.	.
.	.	8A\	.	.	.
!	!	!LO:TX:a:t=P:problem=# above	!	!	!
!	!	!LO:N:acc=#	!	!	!
.	.	8Bn\J	.	.	.
!LO:TX:t=P:problem=kreska pseudotaktowa	!	!LO:TX:t=P:problem=kreska pseudotaktowa	!	!	!
2C/	.	2c\	.	8rb	.
.	.	.	.	8gg\L	.
.	.	.	.	8ffny\	.
!	!	!	!	!LO:TX:a:t=P:problem=♭ above	!
.	.	.	.	8ee-X\J	.
*	*	*	*	*clefG2	*
1BB-	.	4.B\	.	4.dd\	.
.	.	8c\	.	8ee-X\	.
.	.	8.B\L	.	8.dd\L	.
.	.	16c\Jk	.	16ee-\Jk	.
.	.	8.B\L	.	8.dd\L	.
!	!	!LO:TX:t=P:problem=kreska pseudotaktowa	!	!LO:TX:t=P:problem=kreska pseudotaktowa	!
.	.	16c\Jk	.	16ee-\Jk	.
=54-	=54-	=54-	=54-	=54-	=54-
1AA	.	4.A\	.	4.cc\	.
*	*	*custos:A	*	*	*
.	.	8B-y\	.	8dd\	.
!	!	!LO:LB:g=original	!	!	!
.	.	8.A\L	.	8.cc\L	.
.	.	16B-\Jk	.	16dd\Jk	.
.	.	8.A\L	.	8.cc\L	.
!	!	!LO:TX:t=P:problem=kreska pseudotaktowa	!	!LO:TX:t=P:problem=kreska pseudotaktowa	!
.	.	16B-\Jk	.	16dd\Jk	.
!	!	!	!	!LO:N:acc=#	!
1GG	.	1G	.	8.bn/L	.
!	!	!	!	!LO:TX:a:t=P:problem=# above	!
.	.	.	.	16f#/Jk	.
.	.	.	.	16g/LL	.
.	.	.	.	16a/	.
!	!	!	!	!LO:TX:a:t=P:problem=# above	!
!	!	!	!	!LO:N:acc=#	!
.	.	.	.	16bn/	.
.	.	.	.	16cc/JJ	.
.	.	.	.	16dd\LL	.
.	.	.	.	16cc\JJ	.
.	.	.	.	16a/LL	.
*	*	*	*	*custos:cc	*
!	!	!	!	!LO:TX:a:t=P:problem=# above	!
!	!	!	!	!LO:N:acc=#	!
.	.	.	.	16bn/JJ	.
!	!	!	!	!LO:LB:g=original	!
.	.	.	.	32cc\LLL	.
!	!	!	!	!LO:TX:a:t=P:problem=# above	!
!	!	!	!	!LO:N:acc=#	!
.	.	.	.	32bn\	.
.	.	.	.	32cc\	.
!	!	!	!	!LO:TX:a:t=P:problem=# above	!
!	!	!	!	!LO:N:acc=#	!
.	.	.	.	32bn\	.
.	.	.	.	32cc\	.
!	!	!	!	!LO:TX:a:t=P:problem=# above	!
!	!	!	!	!LO:N:acc=#	!
.	.	.	.	32bn\	.
.	.	.	.	32a\	.
!	!	!	!	!LO:TX:a:t=P:problem=# above	!
!	!	!	!	!LO:N:acc=#	!
.	.	.	.	32bn\JJJ	.
=55-	=55-	=55-	=55-	=55-	=55-
2.C/	.	8r	.	2cc\	.
.	.	8G\L	.	.	.
.	.	8G\	.	.	.
.	.	8G\J	.	.	.
.	.	4.c\	.	8r	.
.	.	.	.	8g/L	.
!LO:TX:t=P:problem=kreska pseudotaktowa	!	!	!	!	!
4BB-/	.	.	.	8g/	.
!	!	!LO:TX:t=P:problem=kreska pseudotaktowa	!	!LO:TX:t=P:problem=kreska pseudotaktowa	!
.	.	8B-\	.	8g/J	.
1AA	.	2A\	.	4.cc\	.
.	.	.	.	8b-y/	.
.	.	8r	.	2a/	.
.	.	8A\L	.	.	.
.	.	8A\	.	.	.
!	!	!LO:TX:t=P:problem=kreska pseudotaktowa	!	!	!
.	.	8A\J	.	.	.
=56-	=56-	=56-	=56-	=56-	=56-
1GG	.	8B-\L	.	8r	.
.	.	8G\	.	8b-/L	.
.	.	8G\	.	8b-/	.
.	.	8G\J	.	8b-/J	.
.	.	8.B-\L	.	8.dd\L	.
.	.	16B-\Jk	.	16dd\Jk	.
.	.	8.A\L	.	8.cc\L	.
!	!	!LO:TX:t=P:problem=kreska pseudotaktowa	!	!LO:TX:t=P:problem=kreska pseudotaktowa	!
.	.	16G\Jk	.	16b-\Jk	.
1D	.	8.F\L	.	8.a/L	.
.	.	16G\Jk	.	16b-/Jk	.
.	.	8.Eny\L	.	8.g/L	.
.	.	16F\Jk	.	16a/Jk	.
.	.	4D/	.	8.fny/L	.
.	.	.	.	16g/Jk	.
!	!	!LO:TX:t=P:problem=kreska pseudotaktowa	!	!	!
.	.	4r	.	8.e/L	.
!	!	!	!	!LO:TX:t=P:problem=kreska pseudotaktowa	!
.	.	.	.	16f/Jk	.
=57-	=57-	=57-	=57-	=57-	=57-
!	!	!LO:LB:g=original	!	!	!
2G\	.	8.G\L	.	4d/	.
.	.	16A\Jk	.	.	.
.	.	8.F\L	.	8.aa\L	.
*	*	*	*	*custos:gg	*
.	.	16G\Jk	.	16bb-\Jk	.
*custos:D	*	*	*	*	*
!LO:TX:t=P:problem=kreska pseudotaktowa	!	!	!	!	!
!	!	!	!	!LO:LB:g=original	!
2E-X\	.	8.E-X\L	.	8gg\L	.
.	.	.	.	16aa\L	.
.	.	16D\Jk	.	16bb-\JJ	.
.	.	16C/LL	.	8.aa\L	.
.	.	16D/	.	.	.
!	!	!LO:TX:b:t=P:problem=♭ below	!	!	!
.	.	16E-X/	.	.	.
!	!	!LO:TX:t=P:problem=kreska pseudotaktowa	!	!LO:TX:t=P:problem=kreska pseudotaktowa	!
.	.	16C/JJ	.	16gg\Jk	.
!LO:LB:g=original	!	!	!	!	!
1D	.	8D\L	.	8ff#X\L	.
.	.	8E-\J	.	8gg\	.
.	.	16F#X\LL	.	8aa\	.
.	.	16D\JJ	.	.	.
!	!	!LO:TX:t=P:problem=mixed beam	!	!	!
.	.	16G\LL	.	8bb-\J	.
.	.	16GG/JJ	.	.	.
!	!	!LO:TX:t=P:problem=kreska pseudotaktowa	!	!	!
.	.	2D/	.	2aa\	.
=58-	=58-	=58-	=58-	=58-	=58-
1GG	.	2GG/	.	8gg\L	.
.	.	.	.	8dd\	.
.	.	.	.	8dd\	.
.	.	.	.	8cc\J	.
.	.	8r	.	8b-\L	.
.	.	8G\L	.	16dd\L	.
.	.	.	.	16cc\J	.
.	.	8G\	.	8b-\	.
!	!	!	!	!LO:TX:t=P:problem=kreska pseudotaktowa	!
.	.	8Fny\J	.	8a\J	.
!	!	!	!	!LO:TX:t=P:problem=mixed beam	!
1C	-	8E-X\L	.	8g/L	.
.	.	16G\L	.	8gg\	.
.	.	16F\J	.	.	.
.	.	8E-X\	.	8gg\	.
.	.	8D\J	.	8ffny\J	.
*	*	*custos:BB	*	*	*
!	!	!LO:TX:t=P:problem=kreska pseudotaktowa	!	!	!
.	.	2C/	.	8ee-X\L	.
.	.	.	.	16gg\L	.
.	.	.	.	16ff\JJ	.
.	.	.	.	8ee-X\L	.
.	.	.	.	16dd\L	.
.	.	.	.	16cc\JJ	.
=59-	=59-	=59-	=59-	=59-	=59-
*	*	*	*	*custos:gg	*
!	!	!LO:LB:g=original	!	!LO:TX:t=P:problem=kreska pseudotaktowa	!
!LO:N:acc=#	!	!LO:N:acc=#	!	!	!
1BBn	.	2BBn/	.	1gg	.
.	.	8r	.	.	.
.	.	8G\L	.	.	.
.	.	8G\	.	.	.
.	.	8F\J	.	.	.
!	!	!	!	!LO:LB:g=original	!
0C	-	8E-X\L	.	8r	.
.	.	16G\L	.	8gg\L	.
.	.	16F\J	.	.	.
.	.	8E-X\	.	8gg\	.
.	.	8D\J	.	8ff\J	.
!	!	!LO:TX:t=P:problem=kreska pseudotaktowa	!	!	!
.	.	2C/	.	8ee-X\L	.
.	.	.	.	16gg\L	.
.	.	.	.	16ff\JJ	.
.	.	.	.	8ee-X\L	.
.	.	.	.	16dd\L	.
!	!	!	!	!LO:TX:t=P:problem=kreska pseudotaktowa	!
.	.	.	.	16cc\JJ	.
=60-	=60-	=60-	=60-	=60-	=60-
.	.	8r	.	4gg\	.
.	.	16G\LL	.	.	.
.	.	16F\JJ	.	.	.
.	.	8E-X/L	.	4r	.
.	.	16D/L	.	.	.
.	.	16C/JJ	.	.	.
.	.	4G\	.	8r	.
.	.	.	.	16gg\LL	.
.	.	.	.	16ff\JJ	.
.	.	4r	.	8ee-X\L	.
.	.	.	.	16dd\L	.
.	.	.	.	16cc\JJ	.
0C	-	4r	.	2.gg\	.
.	.	8G\L	.	.	.
.	.	8F\J	.	.	.
.	.	4E-X\	.	.	.
*	*	*custos:C	*	*	*
.	.	4D/	.	4ff\	.
=61-	=61-	=61-	=61-	=61-	=61-
!	!	!LO:LB:g=original	!	!	!
.	.	1C	.	4ee-X\	.
.	.	.	.	4dd\	.
.	.	.	.	1cc	.
0.GG;;	.	0.GG;;	.	.	.
!	!	!	!	!LO:N:acc=#	!
.	.	.	.	4bn/	.
.	.	.	.	4a/	.
=62-	=62-	=62-	=62-	=62-	=62-
!	!	!	!	!LO:N:acc=#	!
.	.	.	.	0bn;;	.
=-	=-	=-	=-	=-	=-
*-	*-	*-	*-	*-	*-
!!!system-decoration: {(s1,s2)}s3
!!!RDF**kern: < = below
!!!RDF**kern: > = above
!!!ENC: Andrzej Gręziak
!!!END: 2022-11-03
!!!ENC: Marta Chmielewska
!!!END: 2023-07-12
